X:1
T:Schule fuer die Gitarre - Uebungsstuecke
T:No 9 - Romanze - Adagio
T:No 9 - Romanze - Adagio
T:Schule für die Gitarre - Übungsstücke
T:Johann Kaspar Mertz (1806-1856)
T:		
C:Johann Kaspar Mertz (1806-1856)
Z:
%%score ( 1 2 3 )
L:1/8
Q:1/4=71
M:2/4
K:G
V:1 treble-8 nm="Klassische Gitarre"
V:2 treble-8 
V:3 treble-8 
V:1
"^Adagio"!p! [GB]2 cB | !arpeggio![GBg]2 fe | [Ace]2 dc | [GB]2 z2 | A2 BA | G2 ef | ag fe | %7
 !arpeggio![ABf]4 | [GB]2 cB | [GBg]2 fe | d2 [Ac]2 | [GB]2 z2 | A2 Bc | [GBe]2 dG | B2 A2 | %15
 G2 z2 | [AB]2 B>B | !>![Ac]2 B2 | cB ge | b2 B2 | [AB]2 B>B | !>![Ac]2 B2 | (3[GBg]fe (3d^c=c | %23
 B2 z2 | [GB]2 cB | [GBg]2 fe | [Ace]2 dc | [GB]2 z2 | A2 GA | [GB]2 e>e | !4!g2 !3![ABf]2 | %31
 [GBe]2 !4!c'>!3!b | !3!b2 !3![ABf]>!4!g | [GBe]2 !4!c'>!3!b | !3!b2 !2!!3![ABf]>g | %35
 [GBe]7/2 [GBe']/ | [GBe']2 [GBe']2 | [GBe']7/2 [GBe]/ | [GBe]2 [GBe]2 | %39
 !arpeggio!!fermata![GBe]4 |] %40
V:2
 E,4 | !arpeggio!E,4 | A,4 | E,2 z2 | B,4 | E,4 | [E,GB]4 | !arpeggio!B,4 | E,4 | E,4 | z2 D2 | %11
 G,2 z2 | C2 z2 | D4 | z2 D2 | G,2 z2 | B,4 | B,4 | G2 x2 | x4 | B,4 | B,4 | E,2 A,2 | %23
 (3B,CB, (3A,G,F, | E,4 | E,4 | A,4 | E,2 z2 | A,4 | B,4 | z2 B,2 | E,2 z2 | z2 !1!B,2 | E,2 z2 | %34
 z2 !1!B,2 | E,7/2 E,/ | E,2 E,2 | E,7/2 E/ | B,2 G,2 | !arpeggio!E,4 |] %40
V:3
 x4 | x4 | x4 | x4 | x4 | x4 | x4 | x4 | x4 | x4 | x4 | x4 | x4 | x4 | x4 | x4 | x4 | x4 | E,4 | %19
 B,4 | x4 | x4 | x4 | x4 | x4 | x4 | x4 | x4 | x4 | x4 | x4 | x4 | x4 | x4 | x4 | x4 | x4 | x4 | %38
 x4 | x4 |] %40

